svg/fluentui-system-icons/ic_fluent_align_space_between_horizontal_20_filled.svg

<svg width="20" height="20" viewBox="0 0 20 20" fill="none" xmlns="http://www.w3.org/2000/svg">
<path d="M6 1C4.89543 1 4 1.89543 4 3V4C4 5.10457 4.89543 6 6 6H14C15.1046 6 16 5.10457 16 4V3C16 1.89543 15.1046 1 14 1H6ZM6 14C4.89543 14 4 14.8954 4 16V17C4 18.1046 4.89543 19 6 19H14C15.1046 19 16 18.1046 16 17V16C16 14.8954 15.1046 14 14 14H6Z" fill="#212121"/>
</svg>

<svg xmlns="http://www.w3.org/2000/svg" width="20" height="20"><path d="M6 1a2 2 0 0 0-2 2v1a2 2 0 0 0 2 2h8a2 2 0 0 0 2-2V3a2 2 0 0 0-2-2H6Zm0 13a2 2 0 0 0-2 2v1a2 2 0 0 0 2 2h8a2 2 0 0 0 2-2v-1a2 2 0 0 0-2-2H6Z"/></svg>
